icons/svn-filled.svg

<svg width="256" height="256" viewBox="0 0 256 256" fill="none" xmlns="http://www.w3.org/2000/svg">
<g clip-path="url(#clip0_572_35)">
<path d="M196 0H60C26.8629 0 0 26.8629 0 60V196C0 229.137 26.8629 256 60 256H196C229.137 256 256 229.137 256 196V60C256 26.8629 229.137 0 196 0Z" fill="white"/>
<path fill-rule="evenodd" clip-rule="evenodd" d="M-47.4717 0V92.5717C-0.0574455 72.7218 63.4072 52.7567 143.06 32.6304C194.09 19.7578 243.415 8.88873 291.037 0H-47.4717ZM179.283 44.0291C137.488 54.5759 103.867 65.3068 78.4213 76.199C52.9295 86.8608 41.0241 95.5423 42.7052 102.197C44.1789 108.069 54.8408 110.741 74.7599 110.165C84.9842 109.981 101.587 108.875 124.615 106.826C147.643 104.799 177.349 101.829 213.733 97.9602C249.771 94.2067 279.546 91.6506 303.472 90.1768V19.8269C257.232 26.7353 215.782 34.795 179.283 44.0291ZM158.351 139.525C140.251 140.884 117.799 142.957 90.9484 145.789C49.2911 150.256 14.6803 153.641 -12.8609 155.921C-26.0328 157.027 -37.5006 157.833 -47.4717 158.408V233.433C7.17328 225.373 56.5909 215.793 100.666 204.671C143.981 193.733 177.349 183.117 200.791 172.824C224.21 162.507 235.01 153.849 233.237 146.756C231.694 140.631 220.871 137.499 200.814 137.361C190.544 137.476 176.405 138.19 158.351 139.525ZM303.472 163.797C255.436 182.726 195.84 201.171 124.638 219.156C58.295 235.897 0.978806 247.94 -47.4717 255.332V256H303.472V163.797Z" fill="#809CC9"/>
<path fill-rule="evenodd" clip-rule="evenodd" d="M12.6315 177C13.324 177 13.9126 177.262 14.4147 177.786C14.9168 178.293 15.1765 178.887 15.1765 179.586C15.1765 180.32 14.9168 180.949 14.4147 181.456C13.9126 181.963 13.3067 182.207 12.5969 182.207C11.8698 182.207 11.2638 181.963 10.7618 181.456C10.2597 180.932 10 180.32 10 179.586C10 178.87 10.2597 178.258 10.7618 177.751C11.2638 177.245 11.9044 177 12.6315 177ZM14.4147 194.562C14.9168 195.068 15.1765 195.68 15.1765 196.414C15.1765 197.13 14.9168 197.742 14.4147 198.249C13.878 198.755 13.2721 199 12.5969 199C12.2333 199 11.8871 198.93 11.5754 198.79C11.2638 198.668 10.9868 198.476 10.7618 198.249C10.5194 198.004 10.3289 197.742 10.2078 197.41C10.0693 197.095 10 196.746 10 196.379C10 195.662 10.2597 195.051 10.7618 194.544C11.2638 194.037 11.9044 193.775 12.6315 193.775C13.324 193.775 13.9126 194.037 14.4147 194.562Z" fill="white"/>
<path fill-rule="evenodd" clip-rule="evenodd" d="M21.6901 177C22.3826 177 22.9712 177.262 23.4733 177.786C23.9754 178.293 24.2351 178.887 24.2351 179.586C24.2351 180.32 23.9754 180.949 23.4733 181.456C22.9712 181.963 22.3653 182.207 21.6555 182.207C20.9284 182.207 20.3051 181.963 19.803 181.456C19.301 180.932 19.0586 180.32 19.0586 179.586C19.0586 178.87 19.301 178.258 19.803 177.751C20.3224 177.245 20.963 177 21.6901 177ZM23.4733 194.562C23.9754 195.068 24.2351 195.68 24.2351 196.414C24.2351 197.13 23.9754 197.742 23.4733 198.249C22.9366 198.755 22.3307 199 21.6555 199C21.2919 199 20.9457 198.93 20.634 198.79C20.3224 198.668 20.0454 198.476 19.803 198.249C19.578 198.004 19.3875 197.742 19.2663 197.41C19.1278 197.095 19.0586 196.746 19.0586 196.379C19.0586 195.662 19.301 195.051 19.803 194.544C20.3224 194.037 20.963 193.775 21.6901 193.775C22.3826 193.775 22.9712 194.037 23.4733 194.562Z" fill="white"/>
</g>
<defs>
<clipPath id="clip0_572_35">
<rect width="256" height="256" rx="60" fill="white"/>
</clipPath>
</defs>
</svg>

<svg xmlns="http://www.w3.org/2000/svg" width="256" height="256" fill="none"><g clip-path="url(#clip0_572_35)"><path fill="#fff" d="M196 0H60C26.863 0 0 26.863 0 60v136c0 33.137 26.863 60 60 60h136c33.137 0 60-26.863 60-60V60c0-33.137-26.863-60-60-60"/><path fill="#809CC9" fill-rule="evenodd" d="M-47.472 0v92.572C-.057 72.722 63.408 52.757 143.06 32.63 194.09 19.758 243.415 8.89 291.037 0zm226.755 44.03c-41.795 10.546-75.416 21.277-100.862 32.169-25.492 10.662-37.397 19.343-35.716 25.998 1.474 5.872 12.136 8.544 32.055 7.968 10.224-.184 26.827-1.29 49.855-3.339 23.028-2.027 52.734-4.997 89.118-8.866 36.038-3.753 65.813-6.31 89.739-7.783v-70.35c-46.24 6.908-87.69 14.968-124.189 24.202m-20.932 95.495c-18.1 1.359-40.552 3.432-67.403 6.264-41.657 4.467-76.268 7.852-103.809 10.132-13.172 1.106-24.64 1.912-34.61 2.487v75.025c54.644-8.06 104.062-17.64 148.137-28.762 43.315-10.938 76.683-21.554 100.125-31.847 23.419-10.317 34.219-18.975 32.446-26.068-1.543-6.125-12.366-9.257-32.423-9.395-10.27.115-24.409.829-42.463 2.164m145.121 24.272c-48.036 18.929-107.632 37.374-178.834 55.359C58.295 235.897.978 247.94-47.472 255.332V256h350.944z" clip-rule="evenodd"/><path fill="#fff" fill-rule="evenodd" d="M12.632 177c.692 0 1.28.262 1.783.786.502.507.762 1.101.762 1.8 0 .734-.26 1.363-.762 1.87a2.46 2.46 0 0 1-1.818.751c-.727 0-1.333-.244-1.835-.751-.502-.524-.762-1.136-.762-1.87 0-.716.26-1.328.762-1.835s1.142-.751 1.87-.751m1.783 17.562a2.53 2.53 0 0 1 .762 1.852c0 .716-.26 1.328-.762 1.835-.537.506-1.143.751-1.818.751-.364 0-.71-.07-1.022-.21a2.4 2.4 0 0 1-.813-.541 2.3 2.3 0 0 1-.554-.839 2.55 2.55 0 0 1-.208-1.031c0-.717.26-1.328.762-1.835a2.56 2.56 0 0 1 1.87-.769c.692 0 1.28.262 1.783.787M21.69 177c.693 0 1.281.262 1.783.786.502.507.762 1.101.762 1.8 0 .734-.26 1.363-.762 1.87a2.46 2.46 0 0 1-1.817.751c-.728 0-1.35-.244-1.853-.751-.502-.524-.744-1.136-.744-1.87 0-.716.242-1.328.744-1.835.52-.506 1.16-.751 1.887-.751m1.783 17.562a2.53 2.53 0 0 1 .762 1.852c0 .716-.26 1.328-.762 1.835-.536.506-1.142.751-1.817.751-.364 0-.71-.07-1.022-.21a2.6 2.6 0 0 1-.831-.541 2.5 2.5 0 0 1-.537-.839 2.55 2.55 0 0 1-.207-1.031c0-.717.242-1.328.744-1.835a2.63 2.63 0 0 1 1.887-.769c.693 0 1.281.262 1.783.787" clip-rule="evenodd"/></g><defs><clipPath id="clip0_572_35"><rect width="256" height="256" fill="#fff" rx="60"/></clipPath></defs></svg>
